icons/images/Folder_16x.svg

<?xml version="1.0" encoding="iso-8859-1"?>
<!-- Generator: Adobe Illustrator 20.1.0, SVG Export Plug-In . SVG Version: 6.00 Build 0)  -->
<svg version="1.1" xmlns="http://www.w3.org/2000/svg" xmlns:xlink="http://www.w3.org/1999/xlink" x="0px" y="0px"
	 viewBox="0 0 16 16" style="enable-background:new 0 0 16 16;" xml:space="preserve">
<g id="canvas">
	<path id="XMLID_1_" style="opacity:0;fill:#F6F6F6;" d="M16,16H0V0h16V16z"/>
</g>
<g id="outline">
	<path id="XMLID_3_" style="fill:#F6F6F6;" d="M16,2.5v10c0,0.827-0.673,1.5-1.5,1.5H2.504c-0.827,0-1.5-0.673-1.5-1.5v-8
		c0-0.827,0.673-1.5,1.5-1.5H5.39l1-2h8.11C15.327,1,16,1.673,16,2.5z"/>
</g>
<g id="iconBg">
	<path style="fill:#DCB67A;" d="M14.5,2H7.008l-1,2H2.504c-0.277,0-0.5,0.224-0.5,0.5v8c0,0.276,0.223,0.5,0.5,0.5H14.5
		c0.275,0,0.5-0.224,0.5-0.5v-10C15,2.224,14.775,2,14.5,2z M14.004,4H7.508l0.5-1h0.004h5.992V4z"/>
</g>
<g id="iconFg">
	<path id="XMLID_5_" style="fill:#F3F3F3;" d="M14,3v1H7.5L8,3H14z"/>
</g>
</svg>

<?xml version="1.0" encoding="utf-8"?>
<!-- Generator: Adobe Illustrator 26.5.3, SVG Export Plug-In . SVG Version: 6.00 Build 0)  -->
<svg version="1.1" id="Layer_1" xmlns="http://www.w3.org/2000/svg" xmlns:xlink="http://www.w3.org/1999/xlink" x="0px" y="0px"
	 viewBox="0 0 16 16" style="enable-background:new 0 0 16 16;" xml:space="preserve">
<style type="text/css">
	.st0{fill:#F6F6F6;fill-opacity:0;}
	.st1{fill:#F6F6F6;}
	.st2{fill:#FFB95A;}
	.st3{fill:#F3F3F3;}
</style>
<g id="canvas">
	<path id="XMLID_1_" class="st0" d="M16,16H0V0h16V16z"/>
</g>
<g id="outline">
	<path id="XMLID_3_" class="st1" d="M16,2.5v10c0,0.8-0.7,1.5-1.5,1.5h-12C1.7,14,1,13.3,1,12.5v-8C1,3.7,1.7,3,2.5,3h2.9l1-2h8.1
		C15.3,1,16,1.7,16,2.5z"/>
</g>
<g id="iconBg">
	<path class="st2" d="M14.5,2H7L6,4H2.5C2.2,4,2,4.2,2,4.5v8C2,12.8,2.2,13,2.5,13h12c0.3,0,0.5-0.2,0.5-0.5v-10
		C15,2.2,14.8,2,14.5,2z M14,4H7.5L8,3h0h6V4z"/>
</g>
<g id="iconFg">
	<path id="XMLID_5_" class="st3" d="M14,3v1H7.5L8,3H14z"/>
</g>
</svg>
